X:1
T:Morningside, 10.10.13.10
T:Morningside, 10.10.13.10
T:Henry Edward Dibdin, 1866
T:Public Domain Courtesy of the Cyber Hymnal™
C:Henry Edward Dibdin, 1866
Z:Public Domain
Z:Courtesy of the Cyber Hymnal™
%%score ( 1 2 ) ( 3 4 )
L:1/8
Q:1/4=112
M:3/4
K:A
V:1 treble 
V:2 treble 
V:3 bass 
V:4 bass 
V:1
 [CA]2 [EA]2 [CA]2 | [Fd]3 [EB] [Ec]2 | [Ec]2 [EB]2 [A^d]2 | [Ge]6 | [FB]2 [Fc]2 d2 | %5
 c3 z c [GB]2 | [FA]2 A2 [^DF]2 | E6 | E2 [DF]2 [DG]2 | A3 z A A2 | [EG][EA] [EB]2 [Ec]2 | %11
 [Fd]3 [FB] [^Ec]2 | [Ec]2 [Fd]2 [Ae]2 | A3 z A [FA]2 | [Ac]2 [AB]2 [GB]2 | A6 |] %16
V:2
 x6 | x6 | x6 | x6 | x4 (GF) | ^E2 F2 x3 | x2 (FE) x2 | E6 | E2 x4 | E2 (C2 CD) x | x6 | x6 | x6 | %13
 A2 =G2 x3 | x6 | A6 |] %16
V:3
 [A,,E,]2 [C,A,]2 [F,A,]2 | [B,,B,]3 [E,G,] [A,,A,]2 | A,2 [G,B,]2 [F,A,]2 | [E,B,]6 | %4
 [D,B,]2 [C,A,]2 (B,A,) | G,3 z C [G,,C]2 | [F,C]2 [A,,C]2 (B,A,) | [E,G,]6 | %8
 [C,A,]2 A,2 [B,,B,]2 | [A,,C]2 C2 [F,A,]2 x | [E,B,][E,A,] [D,G,]2 [C,A,]2 | (A,G,) z [C,G,]2 x | %12
 [A,,A,]2 (A,B,) [=G,C]2 | [F,D]2 (B,C) [D,D]2 x | [C,E]2 [D,F]2 [E,D]2 | [A,C]6 |] %16
V:4
 x6 | x6 | A,2 x4 | x6 | x4 B,,2 | C,2 ^D,2 x3 | x4 B,,2 | x6 | x2 (D,C,) x2 | x2 (A,G,) x3 | x6 | %11
 B,,3 (F,2 D,) | x2 A,2 x2 | x2 E,2 x3 | x6 | x6 |] %16

